X: 2
T: Mr. Mc. Clanklaines Scotch-measure
%R: _
B: "A Collection of Original Scotch-Tunes", Henry Playford, 1700, ed. p.1 #2
F: http://imslp.org/wiki/A_Collection_of_Original_Scotch_Tunes_(Various)
Z: 2015 John Chambers <jc:trillian.mit.edu>
M: C|
L: 1/8
K: C
% - - - - - - - - - - - - - - - - - - - - - - - - - - - - -
c |\
GE GA GE cE | GE CE c3 E | GE GA GE cE | B2 D2 D2 EF |\
GFED CD EC | DE FD GE AF | EG FA Gc Bd | c2 C2 C2 |]
cd |\
efga ge dc | ge cg ec ge | ce ge dc BA | B2G2 G2 AB |\
cA FA dB GB | ec Ac ge dg | agfe defg | e2c2 c2 |]
% - - - - - - - - - - - - - - - - - - - - - - - - - - - - -

%%sep 1 1 500
%%sep 1 1 500

